style-guide/assets/xd-icons-clipboard.svg

<?xml version="1.0" encoding="UTF-8"?>
<svg width="24px" height="24px" viewBox="0 0 24 24" version="1.1" xmlns="http://www.w3.org/2000/svg" xmlns:xlink="http://www.w3.org/1999/xlink">
    <!-- Generator: Sketch 51.3 (57544) - http://www.bohemiancoding.com/sketch -->
    <title>clipboard</title>
    <desc>Created with Sketch.</desc>
    <defs></defs>
    <g id="clipboard" stroke="none" stroke-width="1" fill="none" fill-rule="evenodd">
        <path d="M7,3 L7,2 C7,1.44771525 7.44771525,1 8,1 L16,1 C16.5522847,1 17,1.44771525 17,2 L17,3 L22,3 C22.5522847,3 23,3.44771525 23,4 L23,22 C23,22.5522847 22.5522847,23 22,23 L2,23 C1.44771525,23 1,22.5522847 1,22 L1,4 C1,3.44771525 1.44771525,3 2,3 L7,3 Z M7,5 L3,5 L3,21 L21,21 L21,5 L17,5 L17,6 C17,6.55228475 16.5522847,7 16,7 L8,7 C7.44771525,7 7,6.55228475 7,6 L7,5 Z M10,15.5857864 L16.2928932,9.29289322 C16.6834175,8.90236893 17.3165825,8.90236893 17.7071068,9.29289322 C18.0976311,9.68341751 18.0976311,10.3165825 17.7071068,10.7071068 L10.7071068,17.7071068 C10.5118446,17.9023689 10.2559223,18 10,18 C9.74407768,18 9.48815536,17.9023689 9.29289322,17.7071068 L6.29289322,14.7071068 C5.90236893,14.3165825 5.90236893,13.6834175 6.29289322,13.2928932 C6.68341751,12.9023689 7.31658249,12.9023689 7.70710678,13.2928932 L10,15.5857864 Z" id="Combined-Shape" fill="#000000" fill-rule="nonzero"></path>
    </g>
</svg>

<svg viewBox="0 0 24 24" xmlns="http://www.w3.org/2000/svg">
  <path d="M7 3V2a1 1 0 0 1 1-1h8a1 1 0 0 1 1 1v1h5a1 1 0 0 1 1 1v18a1 1 0 0 1-1 1H2a1 1 0 0 1-1-1V4a1 1 0 0 1 1-1h5zm0 2H3v16h18V5h-4v1a1 1 0 0 1-1 1H8a1 1 0 0 1-1-1V5zm3 10.586l6.293-6.293a1 1 0 0 1 1.414 1.414l-7 7a.997.997 0 0 1-1.414 0l-3-3a1 1 0 0 1 1.414-1.414L10 15.586z"/>
</svg>
